src/icons/svg/tools.svg

<?xml version="1.0" encoding="UTF-8"?>
<svg width="40px" height="35px" viewBox="0 0 40 35" version="1.1" xmlns="http://www.w3.org/2000/svg"
>
    <polygon id="路径" points="40 35 0 35 0 11.25 2.5 11.25 2.5 32.5 37.5 32.5 37.5 11.25 40 11.25"></polygon>
    <path d="M40,17.5 L0,17.5 L0,8.75 C0,6.67893218 1.67893219,4.99999999 3.75000001,4.99999999 L36.25,4.99999999 C38.3210678,4.99999999 40,6.6789322 40,8.75 L40,17.5 Z M2.5,15 L37.5,15 L37.5,8.75 C37.5,8.05964407 36.940356,7.49999999 36.25,7.49999999 L3.75000001,7.49999999 C3.05964407,7.49999999 2.5,8.05964406 2.5,8.75 L2.5,15 Z"
          id="形状"></path>
    <path d="M10,12.5 L12.5,12.5 L12.5,20 L10,20 L10,12.5 Z M27.5,12.5 L30,12.5 L30,20 L27.5,20 L27.5,12.5 Z M15,6.25000001 L12.5,6.25000001 L12.5,0 L27.5,0 L27.5,6.25000001 L25,6.25000001 L25,2.5 L15,2.5 L15,6.25000001 Z"
          id="形状"></path>
</svg>

<svg width="40" height="35" xmlns="http://www.w3.org/2000/svg"><path d="M40 35H0V11.25h2.5V32.5h35V11.25H40z"/><path d="M40 17.5H0V8.75A3.75 3.75 0 0 1 3.75 5h32.5A3.75 3.75 0 0 1 40 8.75v8.75zM2.5 15h35V8.75c0-.69-.56-1.25-1.25-1.25H3.75c-.69 0-1.25.56-1.25 1.25V15z"/><path d="M10 12.5h2.5V20H10v-7.5zm17.5 0H30V20h-2.5v-7.5zM15 6.25h-2.5V0h15v6.25H25V2.5H15v3.75z"/></svg>
